img/youtube.svg

<svg width="48" height="48" viewBox="0 0 48 48" fill="none" xmlns="http://www.w3.org/2000/svg">
<rect width="48" height="48" rx="24" fill="#FF0000"/>
<path d="M37.6952 17.1294C37.3658 15.9059 36.4011 14.9412 35.1776 14.6118C32.9423 14 24.0011 14 24.0011 14C24.0011 14 15.0599 14 12.8246 14.5882C11.6246 14.9176 10.6364 15.9059 10.307 17.1294C9.71875 19.3647 9.71875 24 9.71875 24C9.71875 24 9.71875 28.6588 10.307 30.8706C10.6364 32.0941 11.6011 33.0588 12.8246 33.3882C15.0835 34 24.0011 34 24.0011 34C24.0011 34 32.9423 34 35.1776 33.4118C36.4011 33.0824 37.3658 32.1176 37.6952 30.8941C38.2835 28.6588 38.2835 24.0235 38.2835 24.0235C38.2835 24.0235 38.307 19.3647 37.6952 17.1294Z" fill="white"/>
<path d="M21.1543 28.2825L28.5896 24.0001L21.1543 19.7178V28.2825Z" fill="#FF0000"/>
</svg>

<svg width="48" height="48" fill="none" xmlns="http://www.w3.org/2000/svg"><rect width="48" height="48" rx="24" fill="red"/><path d="M37.695 17.13a3.579 3.579 0 0 0-2.517-2.518C32.942 14 24 14 24 14s-8.941 0-11.176.588a3.652 3.652 0 0 0-2.518 2.541C9.719 19.365 9.719 24 9.719 24s0 4.659.588 6.87a3.579 3.579 0 0 0 2.518 2.518C15.084 34 24 34 24 34s8.941 0 11.177-.588a3.579 3.579 0 0 0 2.517-2.518c.588-2.235.588-6.87.588-6.87s.024-4.66-.588-6.895Z" fill="#fff"/><path d="M21.154 28.282 28.59 24l-7.436-4.282v8.564Z" fill="red"/></svg>
